X: 14079
T: Freemount Bypass
R: reel
M: 4/4
K: Eminor
|:EBBA BGEB,|EFGA FEDF|EBBA BGEF|GA(3B^cd c4|
EBBA BGEB,|EFGA FEDF|EFGE FDB,c|BAFA GEED:|
K: Emaj
|:G2GF GEB,E|GABG AcBA|G2GF GEB,E|_E=EFG A2GF|
G2GF GEB,E|GABG AGFA|B~=G3 A~F3|1 =G~E3 _E=EFA:|2 =G~E3 _eBAF||

